assets/images/logos/intel.svg

<?xml version="1.0" encoding="iso-8859-1"?>
<!-- Generator: Adobe Illustrator 19.0.0, SVG Export Plug-In . SVG Version: 6.00 Build 0)  -->
<svg version="1.1" id="Capa_1" xmlns="http://www.w3.org/2000/svg" xmlns:xlink="http://www.w3.org/1999/xlink" x="0px" y="0px"
	 viewBox="0 0 512 512" style="enable-background:new 0 0 512 512;" xml:space="preserve">
<g>
	<path style="fill:white;" d="M243.206,388.211C-20.446,412.532-1.738,260.667,55.922,197.777V184.06
		C13.49,221.273-9.505,268.362,3.741,323.984c32.202,135.787,298.001,115.947,421.48,48.123v-38.79
		C380.07,360.219,305.406,382.44,243.206,388.211z"/>
	<path style="fill:white;" d="M509.731,183.131C485.732,65.967,258.24,58.539,111.597,147.804v9.861
		c146.476-75.307,354.247-74.849,373.163,33.082c6.347,35.702-13.763,72.9-49.692,94.316v28.006
		C478.288,297.215,522.62,245.939,509.731,183.131z"/>
</g>
<g>
	<path style="fill:white;" d="M424.573,333.694v20.836c-126.236,69.338-412.074,91.828-424.3-69.432
		c-0.805,12.451,0.26,25.416,3.468,38.888c32.202,135.787,298.001,115.947,421.48,48.123v-38.79
		C425.009,333.443,424.786,333.568,424.573,333.694z"/>
	<path style="fill:white;" d="M435.068,285.062v28.006c4.327-1.587,8.665-3.536,12.957-5.809v-11.923
		c0-3.923,1.952-7.592,5.214-9.771c32.643-21.802,50.516-57.092,44.482-91.032c-7.066-40.319-40.488-65.639-87.221-77.617
		c39.89,13.148,67.866,37.348,74.26,73.831C491.107,226.449,470.997,263.647,435.068,285.062z"/>
</g>
<g>
	<path style="fill:white;" d="M415.775,166.07h-23.996c-0.699,0-1.265,0.566-1.265,1.265v116.88
		c0,13.513,6.375,25.307,25.116,27.655c0.749,0.094,1.411-0.505,1.411-1.26V167.335C417.041,166.636,416.474,166.07,415.775,166.07z
		"/>
	<path style="fill:white;" d="M99.916,209.207H75.871c-0.699,0-1.265,0.566-1.265,1.265l-0.014,75.924
		c0,13.562,6.396,25.344,25.181,27.658c0.748,0.092,1.408-0.506,1.408-1.26V210.472C101.181,209.773,100.615,209.207,99.916,209.207
		z"/>
	<path style="fill:white;" d="M74.606,170.93v22.615c0,0.699,0.566,1.265,1.265,1.265h23.962c0.699,0,1.265-0.566,1.265-1.265
		V170.93c0-0.699-0.566-1.265-1.265-1.265H75.871C75.172,169.664,74.606,170.231,74.606,170.93z"/>
	<path style="fill:white;" d="M260.047,312.985c-21.472,0-30.559-14.923-30.559-29.624V182.137c0-0.699,0.566-1.265,1.265-1.265
		h23.767c0.699,0,1.265,0.566,1.265,1.265v25.804c0,0.699,0.566,1.265,1.265,1.265h17.272c0.699,0,1.265,0.566,1.265,1.265v18.71
		c0,0.699-0.566,1.265-1.265,1.265H257.05c-0.699,0-1.265,0.566-1.265,1.265v50.024c0,5.993,2.845,9.333,9.094,9.333h9.443
		c0.699,0,1.265,0.566,1.265,1.265v19.385c0,0.699-0.566,1.265-1.265,1.265h-14.275"/>
	<path style="fill:white;" d="M308.434,269.32c0,13.458,8.416,23.346,23.305,23.346c11.159,0,16.905-2.96,23.278-9.039
		c0.491-0.468,1.262-0.479,1.753-0.012l14.415,13.731c0.521,0.496,0.526,1.335,0.007,1.834
		c-10.137,9.741-20.968,15.624-39.648,15.624c-25.166,0-49.276-13.736-49.276-53.776c0-34.232,21.069-53.581,48.693-53.581
		c28.082,0,44.221,22.652,44.221,52.387v8.22c0,0.699-0.566,1.265-1.265,1.265L308.434,269.32 M310.962,240.085
		c-1.534,3.376-2.194,6.081-2.454,9.942c-0.049,0.734,0.528,1.363,1.264,1.363h37.844c0.729,0,1.319-0.616,1.263-1.343
		C346.702,221.934,317.678,225.75,310.962,240.085z"/>
	<path style="fill:white;" d="M172.602,230.447c7.711,0,10.916,3.812,10.916,10v71.426c0,0.699,0.566,1.265,1.265,1.265h23.771
		c0.699,0,1.265-0.566,1.265-1.265v-71.579c0-14.761-7.864-31.059-30.96-31.059l-53.065-0.027c-0.699,0-1.266,0.566-1.266,1.265
		v101.4c0,0.699,0.566,1.265,1.265,1.265h23.781c0.699,0,1.265-0.566,1.265-1.265v-80.161c0-0.699,0.566-1.265,1.265-1.265
		L172.602,230.447L172.602,230.447z"/>
</g>
<g>
	<path style="fill:white;" d="M403.907,284.215v-116.88c0-0.699,0.566-1.265,1.265-1.265h-13.393
		c-0.699,0-1.265,0.566-1.265,1.265v116.88c0,13.513,6.375,25.307,25.116,27.655c0.749,0.094,1.411-0.505,1.411-1.26v-2.234
		C407.459,303.417,403.907,294.296,403.907,284.215z"/>
	<path style="fill:white;" d="M87.985,286.396l0.014-75.924c0-0.698,0.566-1.265,1.265-1.265H75.871
		c-0.699,0-1.265,0.566-1.265,1.265l-0.014,75.924c0,13.562,6.397,25.344,25.181,27.658c0.749,0.092,1.409-0.506,1.409-1.26v-2.198
		C91.554,305.654,87.985,296.522,87.985,286.396z"/>
	<path style="fill:white;" d="M87.999,193.544v-22.615c0-0.699,0.566-1.265,1.265-1.265H75.871c-0.699,0-1.265,0.566-1.265,1.265
		v22.615c0,0.699,0.566,1.265,1.265,1.265h13.393C88.565,194.809,87.999,194.243,87.999,193.544z"/>
	<path style="fill:white;" d="M242.882,283.361V182.138c0-0.699,0.566-1.265,1.265-1.265h-13.393
		c-0.699,0-1.265,0.566-1.265,1.265v101.224c0,14.701,9.086,29.624,30.559,29.624h13.393
		C251.968,312.985,242.882,298.062,242.882,283.361z"/>
	<path style="fill:white;" d="M295.662,261.029c0-31.296,17.613-50.141,41.742-53.146c-2.074-0.277-4.216-0.435-6.442-0.435
		c-27.624,0-48.692,19.349-48.692,53.581c0,40.04,24.11,53.776,49.276,53.776c2.478,0,4.81-0.111,7.028-0.313
		C315.857,312.276,295.662,297.673,295.662,261.029z"/>
	<path style="fill:white;" d="M137.92,311.873v-101.4c0-0.687,0.55-1.24,1.232-1.258l-13.359-0.007
		c-0.699,0-1.266,0.566-1.266,1.265v101.4c0,0.699,0.566,1.265,1.265,1.265h13.393C138.487,313.138,137.92,312.571,137.92,311.873z"
		/>
</g>
<g>
</g>
<g>
</g>
<g>
</g>
<g>
</g>
<g>
</g>
<g>
</g>
<g>
</g>
<g>
</g>
<g>
</g>
<g>
</g>
<g>
</g>
<g>
</g>
<g>
</g>
<g>
</g>
<g>
</g>
</svg>

<svg width="512" height="512" viewBox="0 0 512 512" fill="none" xmlns="http://www.w3.org/2000/svg">
<path d="M243.206 388.211C-20.446 412.532 -1.73803 260.667 55.922 197.777V184.06C13.49 221.273 -9.50503 268.362 3.74097 323.984C35.943 459.771 301.742 439.931 425.221 372.107V333.317C380.07 360.219 305.406 382.44 243.206 388.211Z" fill="#F4F7FE"/>
<path d="M509.731 183.131C485.732 65.967 258.24 58.539 111.597 147.804V157.665C258.073 82.358 465.844 82.816 484.76 190.747C491.107 226.449 470.997 263.647 435.068 285.063V313.069C478.288 297.215 522.62 245.939 509.731 183.131Z" fill="#F4F7FE"/>
<path d="M424.573 333.694V354.53C298.337 423.868 12.499 446.358 0.27299 285.098C-0.53201 297.549 0.53299 310.514 3.74099 323.986C35.943 459.773 301.742 439.933 425.221 372.109V333.319C425.009 333.443 424.786 333.568 424.573 333.694Z" fill="#F4F7FE"/>
<path d="M435.068 285.062V313.068C439.395 311.481 443.733 309.532 448.025 307.259V295.336C448.025 291.413 449.977 287.744 453.239 285.565C485.882 263.763 503.755 228.473 497.721 194.533C490.655 154.214 457.233 128.894 410.5 116.916C450.39 130.064 478.366 154.264 484.76 190.747C491.107 226.449 470.997 263.647 435.068 285.062Z" fill="#F4F7FE"/>
<path d="M415.775 166.07H391.779C391.08 166.07 390.514 166.636 390.514 167.335V284.215C390.514 297.728 396.889 309.522 415.63 311.87C416.379 311.964 417.041 311.365 417.041 310.61V167.335C417.041 166.636 416.474 166.07 415.775 166.07Z" fill="#F4F7FE"/>
<path d="M99.916 209.207H75.871C75.172 209.207 74.606 209.773 74.606 210.472L74.592 286.396C74.592 299.958 80.988 311.74 99.773 314.054C100.521 314.146 101.181 313.548 101.181 312.794V210.472C101.181 209.773 100.615 209.207 99.916 209.207Z" fill="#F4F7FE"/>
<path d="M74.6061 170.93V193.545C74.6061 194.244 75.1721 194.81 75.8711 194.81H99.8331C100.532 194.81 101.098 194.244 101.098 193.545V170.93C101.098 170.231 100.532 169.665 99.8331 169.665H75.8711C75.1721 169.664 74.6061 170.231 74.6061 170.93Z" fill="#F4F7FE"/>
<path d="M260.047 312.985C238.575 312.985 229.488 298.062 229.488 283.361V182.137C229.488 181.438 230.054 180.872 230.753 180.872H254.52C255.219 180.872 255.785 181.438 255.785 182.137V207.941C255.785 208.64 256.351 209.206 257.05 209.206H274.322C275.021 209.206 275.587 209.772 275.587 210.471V229.181C275.587 229.88 275.021 230.446 274.322 230.446H257.05C256.351 230.446 255.785 231.012 255.785 231.711V281.735C255.785 287.728 258.63 291.068 264.879 291.068H274.322C275.021 291.068 275.587 291.634 275.587 292.333V311.718C275.587 312.417 275.021 312.983 274.322 312.983H260.047" fill="#F4F7FE"/>
<path d="M308.434 269.32C308.434 282.778 316.85 292.666 331.739 292.666C342.898 292.666 348.644 289.706 355.017 283.627C355.508 283.159 356.279 283.148 356.77 283.615L371.185 297.346C371.706 297.842 371.711 298.681 371.192 299.18C361.055 308.921 350.224 314.804 331.544 314.804C306.378 314.804 282.268 301.068 282.268 261.028C282.268 226.796 303.337 207.447 330.961 207.447C359.043 207.447 375.182 230.099 375.182 259.834V268.054C375.182 268.753 374.616 269.319 373.917 269.319L308.434 269.32ZM310.962 240.085C309.428 243.461 308.768 246.166 308.508 250.027C308.459 250.761 309.036 251.39 309.772 251.39H347.616C348.345 251.39 348.935 250.774 348.879 250.047C346.702 221.934 317.678 225.75 310.962 240.085Z" fill="#F4F7FE"/>
<path d="M172.602 230.447C180.313 230.447 183.518 234.259 183.518 240.447V311.873C183.518 312.572 184.084 313.138 184.783 313.138H208.554C209.253 313.138 209.819 312.572 209.819 311.873V240.294C209.819 225.533 201.955 209.235 178.859 209.235L125.794 209.208C125.095 209.208 124.528 209.774 124.528 210.473V311.873C124.528 312.572 125.094 313.138 125.793 313.138H149.574C150.273 313.138 150.839 312.572 150.839 311.873V231.712C150.839 231.013 151.405 230.447 152.104 230.447H172.602Z" fill="#F4F7FE"/>
<path d="M403.907 284.215V167.335C403.907 166.636 404.473 166.07 405.172 166.07H391.779C391.08 166.07 390.514 166.636 390.514 167.335V284.215C390.514 297.728 396.889 309.522 415.63 311.87C416.379 311.964 417.041 311.365 417.041 310.61V308.376C407.459 303.417 403.907 294.296 403.907 284.215Z" fill="#F4F7FE"/>
<path d="M87.985 286.396L87.999 210.472C87.999 209.774 88.565 209.207 89.264 209.207H75.871C75.172 209.207 74.606 209.773 74.606 210.472L74.592 286.396C74.592 299.958 80.989 311.74 99.773 314.054C100.522 314.146 101.182 313.548 101.182 312.794V310.596C91.554 305.654 87.985 296.522 87.985 286.396Z" fill="#F4F7FE"/>
<path d="M87.9991 193.544V170.929C87.9991 170.23 88.5651 169.664 89.2641 169.664H75.8711C75.1721 169.664 74.6061 170.23 74.6061 170.929V193.544C74.6061 194.243 75.1721 194.809 75.8711 194.809H89.2641C88.5651 194.809 87.9991 194.243 87.9991 193.544Z" fill="#F4F7FE"/>
<path d="M242.882 283.361V182.138C242.882 181.439 243.448 180.873 244.147 180.873H230.754C230.055 180.873 229.489 181.439 229.489 182.138V283.362C229.489 298.063 238.575 312.986 260.048 312.986H273.441C251.968 312.985 242.882 298.062 242.882 283.361Z" fill="#F4F7FE"/>
<path d="M295.662 261.029C295.662 229.733 313.275 210.888 337.404 207.883C335.33 207.606 333.188 207.448 330.962 207.448C303.338 207.448 282.27 226.797 282.27 261.029C282.27 301.069 306.38 314.805 331.546 314.805C334.024 314.805 336.356 314.694 338.574 314.492C315.857 312.276 295.662 297.673 295.662 261.029Z" fill="#F4F7FE"/>
<path d="M137.92 311.873V210.473C137.92 209.786 138.47 209.233 139.152 209.215L125.793 209.208C125.094 209.208 124.527 209.774 124.527 210.473V311.873C124.527 312.572 125.093 313.138 125.792 313.138H139.185C138.487 313.138 137.92 312.571 137.92 311.873Z" fill="#F4F7FE"/>
</svg>
